X: 1
T: Jumping White Nut Eater, The
M: 4/4
L: 1/8
R: reel
K: Gmaj
B2BG c2Bc|A=F(3=F=F=F  ABcA|G=FDC DE=FG|ABcA BGGA|
B2BG c2Bc|A=F(3=F=F=F =FGAc|(3ddd gd (3ccc =fc|[1 BdcA GFGA:|[2 BdcA Gdef||
gG(3GGG dGBd|=fc(3ccc cdef|gG(3GGG dGBd|=fdcA ~=F3A|
(3ddd gd (3ccc =fc|BGdG (3=F=F=F GA|B2GB c2Bc|[1 dg=fd cdef:|[2 dg=fd c2cA||
